src/16/actions/tools-check-spelling.svg

<svg xmlns="http://www.w3.org/2000/svg" width="16" height="16" viewBox="0 0 16 16">
 <defs>
  <style id="current-color-scheme" type="text/css">
   .ColorScheme-Text { color:#565656; } .ColorScheme-Highlight { color:#5294e2; }
  </style>
 </defs>
 <path style="fill:currentColor" class="ColorScheme-Text" d="M 8 2 L 8 11.023438 L 11.001953 11.023438 C 11.940503 11.023438 12.770781 10.650903 13.300781 10.064453 C 13.830781 9.4780131 14.066521 8.7278469 14.056641 7.9980469 C 14.046641 7.2682269 13.794418 6.5322781 13.267578 5.9550781 C 12.737578 5.3780781 11.918047 5 10.998047 5 L 9.9960938 5 L 9.9960938 2 L 8 2 z M 2.0058594 3 L 1.9980469 5 L 4.9199219 5.0117188 L 4.921875 5.0117188 C 4.866675 5.0117188 5.0058594 5.1711 5.0058594 5.09375 L 5.0058594 6.0175781 L 4.0019531 6.0175781 C 2.2860531 6.0175781 0.97186563 7.1430531 0.94726562 8.5019531 C 0.93496563 9.1814031 1.2530938 9.8649188 1.8085938 10.324219 C 2.3640938 10.783489 3.1239531 11.023438 4.0019531 11.023438 L 7.0058594 11.023438 L 7.0058594 5.09375 C 7.0058594 3.92255 6.118725 3.0117188 4.921875 3.0117188 L 2.0058594 3 z M 10 7 L 11.001953 7 C 11.423743 7 11.627462 7.1256944 11.789062 7.3027344 C 11.950663 7.4797844 12.052901 7.7495806 12.056641 8.0253906 C 12.060641 8.3012006 11.968046 8.5548762 11.816406 8.7226562 C 11.664786 8.8904263 11.460713 9.0234375 11.001953 9.0234375 L 10 9.0234375 L 10 7 z M 4.0019531 8.0175781 L 5.0058594 8.0175781 L 5.0058594 9.0234375 L 4.0019531 9.0234375 C 3.4825431 9.0234375 3.2081613 8.8874931 3.0820312 8.7832031 C 2.9558913 8.6789231 2.9459656 8.6090694 2.9472656 8.5371094 C 2.9502656 8.3931794 3.0321531 8.0175781 4.0019531 8.0175781 z M 3.0019531 11.292969 L 0.6484375 13.646484 A 0.50005 0.50005 0 1 0 1.3554688 14.353516 L 3.0019531 12.707031 L 5.0019531 14.707031 L 7.0019531 12.707031 L 9.0019531 14.707031 L 11.001953 12.707031 L 13.001953 14.707031 L 15.355469 12.353516 A 0.50005 0.50005 0 1 0 14.648438 11.646484 L 13.001953 13.292969 L 11.001953 11.292969 L 9.0019531 13.292969 L 7.0019531 11.292969 L 5.0019531 13.292969 L 3.0019531 11.292969 z"/>
</svg>

<svg xmlns="http://www.w3.org/2000/svg" width="16" height="16"><defs><style id="current-color-scheme" type="text/css"></style></defs><path d="M8 2v9.023h3.002c.939 0 1.769-.372 2.299-.959.53-.586.766-1.336.756-2.066a3.077 3.077 0 0 0-.79-2.043C12.738 5.378 11.919 5 10.999 5H9.996V2H8zM2.006 3l-.008 2 2.922.012h.002c-.055 0 .084.16.084.082v.924H4.002c-1.716 0-3.03 1.125-3.055 2.484-.012.68.306 1.363.862 1.822.555.46 1.315.7 2.193.7h3.004v-5.93c0-1.171-.887-2.082-2.084-2.082L2.006 3zM10 7h1.002c.422 0 .625.126.787.303.162.177.264.447.268.722.004.276-.089.53-.24.698-.152.167-.356.3-.815.3H10V7zM4.002 8.018h1.004v1.005H4.002c-.52 0-.794-.136-.92-.24-.126-.104-.136-.174-.135-.246.003-.144.085-.52 1.055-.52zm-1 3.275L.648 13.646a.5.5 0 1 0 .707.708l1.647-1.647 2 2 2-2 2 2 2-2 2 2 2.353-2.353a.5.5 0 1 0-.707-.708l-1.646 1.647-2-2-2 2-2-2-2 2-2-2z" fill="currentColor" color="#565656"/></svg>
